X:111
T:Her Mantle So Green
R:Waltz
M:3/4
L:1/4
K:G
B,/2D/2|:"Em"E3/2 F/2 E|"C"EDB,|"G"G/2F/2 G3/2 A/2|"Em"B2 G/2A/2|!
"Bm" B e d/2e/2|"Em"B A B/2A/2|"C"G E D/2B,/2|"Bm"D2 G/2F/2|!
"Em"E3/2 F/2 E|"C"EDB,|"G"G/2F/2 G3/2A/2|"Em"B2 G/2A/2|!
"Bm"B e d/2e/2|"Em"B A B/2A/2|"C"G E "D"D|"Em"E2z/2:|!
"C"e3/2 f/2 e|"Bm"d B3/2 d/2|"C"e3/2 d/2 B| "G"d2 B/2d/2|!
"Em"e3/2 d/2 e|"Bm"B A B/2A/2|"C"G E D/2B,/2|"Bm"D2 G/2F/2|!
"Em"E3/2 F/2 E|"C"EDB,|"G"G/2F/2 G3/2 A/2|"Em"B2G/2A/2|!

